react_webviews/src/assets/logo_safegold.svg

<svg xmlns="http://www.w3.org/2000/svg" width="70" height="70" viewBox="0 0 70 70">
  <defs>
    <radialGradient id="logo_safegold-a" cx="50%" cy="51.395%" r="45.174%" fx="50%" fy="51.395%">
      <stop offset="0%" stop-color="#ECC74F"/>
      <stop offset="100%" stop-color="#B78C51"/>
    </radialGradient>
  </defs>
  <path fill="url(#logo_safegold-a)" fill-rule="evenodd" d="M69.8979628,31.7183591 C69.9655754,32.6209934 70,33.5330511 70,34.4532758 C70,54.0851895 54.3322377,70 35.0050735,70 C25.2803798,70 16.482144,65.9708164 10.1400691,59.4662723 L14.5291063,54.9006777 C19.7383055,60.282385 26.9879899,63.6198187 35.0050735,63.6198187 C49.5857567,63.6198187 61.6281325,52.5806702 63.473728,38.2816044 L57.2162528,38.2810771 C57.585321,37.2424068 57.786494,36.1222065 57.786494,34.9542788 C57.786494,33.820391 57.5968767,32.7314891 57.2480942,31.7185053 L69.8979628,31.7183591 Z M34.9949265,1.77635684e-14 C44.7196202,1.77635684e-14 53.517856,4.02918364 59.8599309,10.5337277 L55.4708937,15.0993223 C50.2616945,9.71761498 43.0120101,6.38018126 34.9949265,6.38018126 C20.4142433,6.38018126 8.37186745,17.4193298 6.52627202,31.7183956 L14.0842522,31.7179711 C15.6725068,21.7438491 24.1888902,14.1275442 34.456543,14.1275442 C39.75408,14.1275442 44.5854317,16.1549934 48.2395895,19.487672 L42.7706377,23.7644573 C40.4514323,22.0051184 37.5737463,20.9634527 34.456543,20.9634527 C26.7752341,20.9634527 20.548303,27.2885697 20.548303,35.0909969 C20.548303,42.8934242 26.7752341,49.2185412 34.456543,49.2185412 C40.8968397,49.2185412 46.314742,44.7721275 47.8972949,38.7366095 L32.4824702,38.7368148 L32.4824702,31.8097609 L54.8432668,31.8099067 C55.0086912,32.87893 55.0945766,33.9747755 55.0945766,35.0909969 C55.0945766,46.6687922 45.8546142,56.0544496 34.456543,56.0544496 C24.126527,56.0544496 15.5691186,48.3453447 14.0560801,38.2820219 L0.102037212,38.2816409 C0.0344246499,37.3790066 2.13162821e-14,36.4669489 2.13162821e-14,35.5467242 C2.13162821e-14,15.9148105 15.6677623,1.77635684e-14 34.9949265,1.77635684e-14 Z"/>
</svg>

<svg xmlns="http://www.w3.org/2000/svg" width="70" height="70" viewBox="0 0 70 70">
    <defs>
        <radialGradient id="prefix__a" cx="50%" cy="51.395%" r="45.174%" fx="50%" fy="51.395%">
            <stop offset="0%" stop-color="#ECC74F"/>
            <stop offset="100%" stop-color="#B78C51"/>
        </radialGradient>
    </defs>
    <path fill="url(#prefix__a)" fill-rule="evenodd" d="M69.898 31.718c.068.903.102 1.815.102 2.735C70 54.085 54.332 70 35.005 70c-9.725 0-18.523-4.03-24.865-10.534l4.39-4.565c5.208 5.381 12.458 8.719 20.475 8.719 14.58 0 26.623-11.04 28.469-25.338h-6.258c.37-1.04.57-2.16.57-3.328 0-1.134-.19-2.223-.538-3.235h12.65zM34.995 0C44.72 0 53.518 4.03 59.86 10.534l-4.39 4.565C50.263 9.718 43.013 6.38 34.996 6.38c-14.58 0-26.623 11.04-28.469 25.338h7.558c1.589-9.974 10.105-17.59 20.373-17.59 5.297 0 10.128 2.027 13.783 5.36l-5.47 4.276a13.706 13.706 0 00-8.313-2.8c-7.682 0-13.909 6.325-13.909 14.127 0 7.802 6.227 14.128 13.909 14.128 6.44 0 11.858-4.447 13.44-10.482H32.482V31.81h22.361c.166 1.069.252 2.165.252 3.281 0 11.578-9.24 20.963-20.638 20.963-10.33 0-18.888-7.709-20.4-17.772H.101A36.61 36.61 0 010 35.547C0 15.915 15.668 0 34.995 0z"/>
</svg>
